svgs/regular/face-drooling.svg

<svg xmlns="http://www.w3.org/2000/svg" viewBox="0 0 512 512"><!--! Font Awesome Pro 6.3.0 by @fontawesome - https://fontawesome.com License - https://fontawesome.com/license (Commercial License) Copyright 2023 Fonticons, Inc. --><path d="M48 256c0 114.9 93.1 208 208 208v48C114.6 512 0 397.4 0 256S114.6 0 256 0S512 114.6 512 256c0 80.8-37.5 152.9-96 199.9V388.9c30-36 48-82.4 48-132.9c0-114.9-93.1-208-208-208S48 141.1 48 256zm110.8-32.4c-4.2 12.6-17.8 19.4-30.4 15.2s-19.4-17.8-15.2-30.4c3.8-11.3 12.2-26.8 25.8-39.8C153.2 155.2 173.5 144 200 144c13.3 0 24 10.7 24 24s-10.7 24-24 24c-11.9 0-20.9 4.8-27.9 11.4c-7.4 7-11.8 15.5-13.4 20.2zM129 309.3c10.4-8.3 25.5-6.6 33.7 3.7c18.7 23.4 49.8 47 93.3 47s74.5-23.6 93.3-47c8.3-10.4 23.4-12 33.7-3.7s12 23.4 3.8 33.7c-.9 1.1-1.8 2.2-2.7 3.3V496c0 8.8-7.2 16-16 16s-16-7.2-16-16V376.4c-9.5 7-20.2 13.3-32 18.5V464c0 8.8-7.2 16-16 16s-16-7.2-16-16V404.9c-10 2-20.7 3.1-32 3.1c-62.6 0-106.2-34.3-130.7-65c-8.3-10.3-6.6-25.5 3.7-33.7zM339.9 203.4c-7-6.6-16-11.4-27.9-11.4c-13.3 0-24-10.7-24-24s10.7-24 24-24c26.5 0 46.8 11.2 60.9 24.6c13.7 13 22.1 28.5 25.8 39.8c4.2 12.6-2.6 26.2-15.2 30.4s-26.2-2.6-30.4-15.2c-1.6-4.7-6-13.2-13.4-20.2z"/></svg>

<svg xmlns="http://www.w3.org/2000/svg" viewBox="0 0 512 512"><!--! Font Awesome Pro 6.2.0 by @fontawesome - https://fontawesome.com License - https://fontawesome.com/license (Commercial License) Copyright 2022 Fonticons, Inc. --><path d="M48 256C48 370.9 141.1 464 256 464V512C114.6 512 0 397.4 0 256C0 114.6 114.6 0 256 0C397.4 0 512 114.6 512 256C512 336.8 474.5 408.9 416 455.9V388.9C445.1 352.9 464 306.5 464 256C464 141.1 370.9 48 256 48C141.1 48 48 141.1 48 256V256zM128.4 238.8C115.8 234.6 109 220.1 113.2 208.4C117 197.1 125.4 181.6 139.1 168.6C153.2 155.2 173.5 144 200 144C213.3 144 224 154.7 224 168C224 181.3 213.3 192 200 192C188.1 192 179.1 196.8 172.1 203.4C164.7 210.4 160.3 218.9 158.8 223.6C154.6 236.2 140.1 242.1 128.4 238.8V238.8zM129 309.3C139.4 300.1 154.5 302.7 162.7 313C181.5 336.4 212.5 360 256 360C299.5 360 330.5 336.4 349.3 313C357.5 302.7 372.6 300.1 382.1 309.3C393.3 317.5 395 332.6 386.7 342.1C385.9 344.1 384.9 345.2 384 346.3V496C384 504.8 376.8 512 368 512C359.2 512 352 504.8 352 496V376.4C342.5 383.4 331.8 389.7 320 394.8V464C320 472.8 312.8 480 304 480C295.2 480 288 472.8 288 464V404.9C277.1 406.9 267.3 408 256 408C193.4 408 149.8 373.7 125.3 342.1C116.1 332.6 118.7 317.5 129 309.3V309.3zM312 192C298.7 192 288 181.3 288 168C288 154.7 298.7 144 312 144C338.5 144 358.8 155.2 372.9 168.6C386.6 181.6 394.1 197.1 398.8 208.4C402.1 220.1 396.2 234.6 383.6 238.8C371 242.1 357.4 236.2 353.2 223.6C351.7 218.9 347.3 210.4 339.9 203.4C332.9 196.8 323.9 192 312 192V192z"/></svg>
